X:1
T:Consoling a Friend
C:Armand Aromin
H:3/10/04
M:6/8
L:1/8
R: Jig
K:Dmaj
FAA BdB | FAA FED | FAA Bcd | egf d3 | 
FAA BdB | FAA FED | FAA Bcd | edc d3 :|
|: cff fed | cBA FED | cff fed | cBA F3 |
cff fed | cBA FED | B,DF dBA | FED B,3 :|
